assets/icons/heart.svg

<svg width="24" height="24" viewBox="0 0 24 24" fill="none" xmlns="http://www.w3.org/2000/svg">
<path d="M11.4995 21.2609C11.1062 21.2609 10.7307 21.1362 10.4133 20.9001C8.2588 19.3012 3.10938 15.3239 1.81755 12.9143C0.127895 9.76543 1.14258 5.72131 4.07489 3.89968C5.02253 3.31177 6.09533 3 7.18601 3C8.81755 3 10.3508 3.66808 11.4995 4.85726C12.6483 3.66808 14.1815 3 15.8131 3C16.9038 3 17.9766 3.31177 18.9242 3.89968C21.8565 5.72131 22.8712 9.76543 21.186 12.9143C19.8942 15.3239 14.7448 19.3012 12.5902 20.9001C12.2684 21.1362 11.8929 21.2609 11.4995 21.2609ZM7.18601 4.33616C6.34565 4.33616 5.5187 4.57667 4.78562 5.03096C2.43888 6.49183 1.63428 9.74316 2.99763 12.2819C4.19558 14.5177 9.58639 18.6242 11.209 19.8267C11.3789 19.9514 11.6158 19.9514 11.7856 19.8267C13.4082 18.6197 18.799 14.5133 19.997 12.2819C21.3603 9.74316 20.5557 6.48738 18.209 5.03096C17.4804 4.57667 16.6534 4.33616 15.8131 4.33616C14.3425 4.33616 12.9657 5.04878 12.0359 6.28696L11.4995 7.00848L10.9631 6.28696C10.0334 5.04878 8.6611 4.33616 7.18601 4.33616Z" fill="black" stroke="black" stroke-width="0.6"/>
</svg>

<svg xmlns="http://www.w3.org/2000/svg" width="24" height="24" fill="none"><path fill="#000" stroke="#000" stroke-width=".6" d="M11.5 21.26c-.394 0-.77-.124-1.087-.36-2.154-1.599-7.304-5.576-8.595-7.986C.128 9.765 1.143 5.721 4.075 3.9c.948-.588 2.02-.9 3.111-.9 1.632 0 3.165.668 4.313 1.857C12.65 3.668 14.181 3 15.813 3c1.09 0 2.164.312 3.111.9 2.933 1.821 3.947 5.865 2.262 9.014-1.292 2.41-6.441 6.387-8.596 7.986a1.83 1.83 0 0 1-1.09.36ZM7.185 4.337c-.84 0-1.667.24-2.4.695-2.347 1.46-3.152 4.712-1.788 7.25 1.198 2.237 6.588 6.343 8.211 7.546.17.124.407.124.577 0 1.622-1.207 7.013-5.314 8.211-7.545 1.363-2.539.559-5.795-1.788-7.251a4.525 4.525 0 0 0-2.396-.695c-1.47 0-2.847.713-3.777 1.951l-.537.721-.536-.721c-.93-1.238-2.302-1.95-3.777-1.95Z"/></svg>
